data/status/weather-windy-small.svg

<?xml version="1.0" encoding="UTF-8"?>
<svg xmlns="http://www.w3.org/2000/svg" xmlns:xlink="http://www.w3.org/1999/xlink" width="64px" height="64px" viewBox="0 0 64 64" version="1.1">
<defs>
<linearGradient id="linear0" gradientUnits="userSpaceOnUse" x1="83.261818" y1="12.47644" x2="70.962502" y2="45.379456" gradientTransform="matrix(0.5,0,0,0.5,0,0)">
<stop offset="0" style="stop-color:rgb(14.901961%,63.529414%,41.176471%);stop-opacity:1;"/>
<stop offset="1" style="stop-color:rgb(34.117648%,89.019608%,53.725493%);stop-opacity:1;"/>
</linearGradient>
</defs>
<g id="surface1">
<path style="fill:none;stroke-width:6;stroke-linecap:round;stroke-linejoin:miter;stroke:rgb(60.000002%,75.686276%,94.509804%);stroke-opacity:1;stroke-miterlimit:4;" d="M 7.070312 61.015625 L 93.492188 61.015625 " transform="matrix(0.5,0,0,0.5,0,0)"/>
<path style="fill:none;stroke-width:6;stroke-linecap:round;stroke-linejoin:miter;stroke:rgb(60.000002%,75.686276%,94.509804%);stroke-opacity:1;stroke-miterlimit:4;" d="M -201.898438 93.492188 C -201.898438 99.046875 -204.859375 104.1875 -209.671875 106.96875 C -214.484375 109.75 -220.421875 109.75 -225.234375 106.96875 C -230.046875 104.1875 -233.015625 99.046875 -233.015625 93.492188 " transform="matrix(0,-0.5,0.5,0,0,-86)"/>
<path style="fill:none;stroke-width:6;stroke-linecap:round;stroke-linejoin:miter;stroke:rgb(60.000002%,75.686276%,94.509804%);stroke-opacity:1;stroke-miterlimit:4;" d="M 7.070312 73.023438 L 99.617188 73.023438 " transform="matrix(0.5,0,0,0.5,0,0)"/>
<path style="fill:none;stroke-width:6;stroke-linecap:round;stroke-linejoin:miter;stroke:rgb(60.000002%,75.686276%,94.509804%);stroke-opacity:1;stroke-miterlimit:4;" d="M 281.578125 84.476562 C 288.421875 91.328125 289.828125 101.929688 284.976562 110.328125 C 280.132812 118.71875 270.25 122.8125 260.890625 120.296875 C 251.53125 117.796875 245.023438 109.3125 245.023438 99.617188 " transform="matrix(0,0.5,0.5,0,0,-86)"/>
<path style="fill:none;stroke-width:6;stroke-linecap:round;stroke-linejoin:miter;stroke:rgb(60.000002%,75.686276%,94.509804%);stroke-opacity:1;stroke-miterlimit:4;" d="M 7.070312 85.03125 L 59.984375 85.03125 " transform="matrix(0.5,0,0,0.5,0,0)"/>
<path style="fill:none;stroke-width:6;stroke-linecap:round;stroke-linejoin:miter;stroke:rgb(60.000002%,75.686276%,94.509804%);stroke-opacity:1;stroke-miterlimit:4;" d="M 268.71875 50.765625 C 273.359375 52.007812 276.289062 56.601562 275.453125 61.34375 C 274.617188 66.078125 270.296875 69.390625 265.5 68.96875 C 260.710938 68.554688 257.03125 64.539062 257.03125 59.734375 " transform="matrix(0,0.5,0.5,0,0,-86)"/>
<path style=" stroke:none;fill-rule:nonzero;fill:url(#linear0);" d="M 43.414062 6.507812 C 41.582031 7.511719 39.800781 8.65625 38.359375 10.171875 C 35.96875 12.679688 34.632812 16.164062 34.734375 19.628906 C 34.695312 16.898438 35.632812 14.160156 37.34375 12.027344 C 38.40625 10.703125 39.757812 9.609375 41.277344 8.84375 C 42.179688 9.457031 42.828125 10.429688 43.046875 11.5 C 43.226562 12.375 43.117188 13.296875 42.820312 14.144531 C 42.515625 14.992188 42.03125 15.757812 41.453125 16.445312 C 40.824219 17.199219 40.089844 17.859375 39.445312 18.59375 C 38.796875 19.335938 38.222656 20.171875 38.007812 21.132812 C 37.785156 22.113281 37.960938 23.167969 38.449219 24.046875 C 38.96875 24.984375 39.828125 25.71875 40.835938 26.082031 C 38.984375 25.867188 37.171875 25.292969 35.53125 24.402344 C 32.34375 22.664062 29.8125 19.632812 28.992188 16.09375 C 28.570312 14.289062 28.601562 12.359375 29.203125 10.609375 C 29.804688 8.859375 31.007812 7.292969 32.617188 6.371094 C 33.609375 5.800781 34.765625 5.480469 35.90625 5.609375 C 36.789062 5.710938 37.640625 6.085938 38.308594 6.671875 C 39.070312 5.078125 40.59375 3.875 42.320312 3.5 C 42.871094 3.378906 43.464844 3.34375 43.988281 3.554688 C 44.25 3.664062 44.488281 3.832031 44.660156 4.054688 C 44.832031 4.28125 44.929688 4.5625 44.921875 4.84375 C 44.914062 5.039062 44.859375 5.234375 44.765625 5.40625 C 44.671875 5.578125 44.542969 5.734375 44.398438 5.867188 C 44.109375 6.132812 43.757812 6.320312 43.414062 6.507812 Z M 43.414062 6.507812 "/>
<path style=" stroke:none;fill-rule:nonzero;fill:rgb(34.117648%,89.019608%,53.725493%);fill-opacity:1;" d="M 43.339844 3.402344 C 43.296875 3.402344 43.25 3.410156 43.207031 3.410156 C 43.460938 3.421875 43.710938 3.460938 43.945312 3.554688 C 44.203125 3.664062 44.445312 3.832031 44.617188 4.054688 C 44.789062 4.28125 44.886719 4.5625 44.875 4.84375 C 44.871094 5.039062 44.8125 5.234375 44.71875 5.40625 C 44.625 5.578125 44.5 5.734375 44.351562 5.867188 C 44.0625 6.132812 43.710938 6.320312 43.367188 6.507812 C 41.539062 7.511719 39.757812 8.660156 38.316406 10.171875 C 35.925781 12.679688 34.59375 16.164062 34.691406 19.628906 C 34.664062 17.761719 35.101562 15.898438 35.921875 14.21875 C 36.539062 12.726562 37.421875 11.34375 38.539062 10.171875 C 39.976562 8.660156 41.757812 7.511719 43.589844 6.507812 C 43.9375 6.320312 44.285156 6.132812 44.574219 5.867188 C 44.71875 5.734375 44.84375 5.578125 44.9375 5.40625 C 45.03125 5.234375 45.09375 5.039062 45.101562 4.84375 C 45.109375 4.5625 45.007812 4.28125 44.835938 4.054688 C 44.664062 3.832031 44.425781 3.664062 44.164062 3.554688 C 43.902344 3.453125 43.625 3.40625 43.339844 3.402344 Z M 35.65625 5.585938 C 35.601562 5.582031 35.550781 5.585938 35.5 5.585938 C 35.617188 5.59375 35.742188 5.597656 35.859375 5.609375 C 36.742188 5.710938 37.59375 6.085938 38.265625 6.671875 C 38.285156 6.628906 38.3125 6.589844 38.332031 6.546875 C 37.6875 6.039062 36.898438 5.703125 36.082031 5.609375 C 35.9375 5.59375 35.796875 5.585938 35.65625 5.585938 Z M 41.453125 8.84375 C 41.410156 8.867188 41.367188 8.890625 41.324219 8.914062 C 42.179688 9.53125 42.789062 10.46875 43 11.496094 C 43.179688 12.375 43.074219 13.296875 42.773438 14.144531 C 42.472656 14.992188 41.984375 15.757812 41.410156 16.445312 C 40.78125 17.199219 40.046875 17.859375 39.398438 18.597656 C 38.75 19.335938 38.179688 20.171875 37.960938 21.132812 C 37.742188 22.113281 37.917969 23.171875 38.40625 24.046875 C 38.902344 24.945312 39.722656 25.65625 40.679688 26.035156 C 40.789062 26.046875 40.898438 26.070312 41.011719 26.078125 C 40.007812 25.71875 39.140625 24.984375 38.625 24.046875 C 38.140625 23.171875 37.960938 22.113281 38.183594 21.132812 C 38.398438 20.171875 38.96875 19.335938 39.617188 18.59375 C 40.265625 17.859375 41 17.199219 41.632812 16.445312 C 42.203125 15.757812 42.695312 14.992188 42.992188 14.144531 C 43.296875 13.296875 43.398438 12.375 43.21875 11.496094 C 43.003906 10.429688 42.355469 9.457031 41.453125 8.84375 Z M 41.453125 8.84375 "/>
<path style="fill:none;stroke-width:2;stroke-linecap:round;stroke-linejoin:miter;stroke:rgb(78.431374%,87.058824%,96.862745%);stroke-opacity:1;stroke-miterlimit:4;" d="M 7.070312 72 L 99.617188 72 " transform="matrix(0.5,0,0,0.5,0,0)"/>
<path style="fill:none;stroke-width:2;stroke-linecap:round;stroke-linejoin:miter;stroke:rgb(78.431374%,87.058824%,96.862745%);stroke-opacity:1;stroke-miterlimit:4;" d="M 280.546875 84.476562 C 287.40625 91.328125 288.796875 101.929688 283.953125 110.328125 C 279.109375 118.71875 269.234375 122.8125 259.875 120.296875 C 250.507812 117.796875 244 109.3125 244 99.617188 " transform="matrix(0,0.5,0.5,0,0,-86)"/>
<path style="fill:none;stroke-width:2;stroke-linecap:round;stroke-linejoin:miter;stroke:rgb(78.431374%,87.058824%,96.862745%);stroke-opacity:1;stroke-miterlimit:4;" d="M 7.070312 60 L 93.492188 60 " transform="matrix(0.5,0,0,0.5,0,0)"/>
<path style="fill:none;stroke-width:2;stroke-linecap:round;stroke-linejoin:miter;stroke:rgb(78.431374%,87.058824%,96.862745%);stroke-opacity:1;stroke-miterlimit:4;" d="M -200.890625 93.492188 C -200.890625 99.046875 -203.851562 104.1875 -208.664062 106.96875 C -213.484375 109.75 -219.40625 109.75 -224.21875 106.96875 C -229.03125 104.1875 -232 99.046875 -232 93.492188 " transform="matrix(0,-0.5,0.5,0,0,-86)"/>
<path style="fill:none;stroke-width:2;stroke-linecap:round;stroke-linejoin:miter;stroke:rgb(78.431374%,87.058824%,96.862745%);stroke-opacity:1;stroke-miterlimit:4;" d="M 7.070312 84 L 59.984375 84 " transform="matrix(0.5,0,0,0.5,0,0)"/>
<path style="fill:none;stroke-width:2;stroke-linecap:round;stroke-linejoin:miter;stroke:rgb(78.431374%,87.058824%,96.862745%);stroke-opacity:1;stroke-miterlimit:4;" d="M 267.6875 50.765625 C 272.328125 52.007812 275.257812 56.601562 274.421875 61.34375 C 273.585938 66.078125 269.265625 69.390625 264.46875 68.96875 C 259.679688 68.554688 256 64.539062 256 59.734375 " transform="matrix(0,0.5,0.5,0,0,-86)"/>
</g>
</svg>

<?xml version="1.0" encoding="UTF-8"?>
<svg width="64" height="64" version="1.1" viewBox="0 0 64 64" xmlns="http://www.w3.org/2000/svg">
    <linearGradient id="a" x1="83.262" x2="70.963" y1="12.476" y2="45.379" gradientTransform="matrix(.5 0 0 .5 -.00016238 .00014539)" gradientUnits="userSpaceOnUse">
        <stop stop-color="#26a269" offset="0"/>
        <stop stop-color="#57e389" offset="1"/>
    </linearGradient>
    <g transform="matrix(.5 0 0 .5 -.00016233 .00014542)" fill="none" stroke="#99c1f1" stroke-linecap="round" stroke-width="6">
        <path d="m7.0703 61.012h86.422"/>
        <path transform="rotate(-90,-86,-86)" d="m-201.9 93.492c0 5.5586-2.9648 10.695-7.7773 13.473-4.8125 2.7812-10.742 2.7812-15.555 0-4.8164-2.7773-7.7812-7.9141-7.7812-13.473"/>
        <path d="m7.0703 73.023h92.547"/>
        <path transform="matrix(0,1,1,0,0,-172)" d="m281.57 84.477c6.8516 6.8555 8.25 17.453 3.4023 25.848-4.8438 8.3945-14.723 12.484-24.082 9.9766-9.3633-2.5078-15.871-10.992-15.871-20.684"/>
        <path d="m7.0703 85.031h52.91"/>
        <path transform="matrix(0,1,1,0,0,-172)" d="m268.71 50.766c4.6484 1.2422 7.5742 5.8359 6.7383 10.574-0.83593 4.7383-5.1562 8.0547-9.9492 7.6328-4.793-0.41797-8.4727-4.4336-8.4727-9.2422"/>
    </g>
    <path d="m43.414 6.508c-1.832 1.0039-3.6133 2.1504-5.0528 3.6641-2.3906 2.5098-3.7266 5.9922-3.625 9.4571-0.04102-2.7324 0.89844-5.4688 2.6074-7.6016 1.0625-1.3262 2.4141-2.4199 3.9336-3.1817 0.90235 0.61133 1.5508 1.584 1.7676 2.6524 0.17969 0.87696 0.07227 1.8008-0.22656 2.6465-0.30078 0.84571-0.78906 1.6152-1.3633 2.3027-0.63086 0.75196-1.3652 1.4121-2.0117 2.1484-0.64844 0.73828-1.2207 1.5781-1.4356 2.5352-0.22266 0.98242-0.04687 2.0371 0.44141 2.918 0.51758 0.9336 1.3809 1.6699 2.3867 2.0332-1.8535-0.21484-3.6641-0.78906-5.3047-1.6797-3.1895-1.7363-5.7188-4.7715-6.5391-8.3086-0.41992-1.8066-0.39258-3.7324 0.21094-5.4844 0.60352-1.752 1.8047-3.3164 3.4121-4.2383 0.99414-0.57031 2.1524-0.89063 3.291-0.75977 0.88282 0.10156 1.7324 0.47656 2.4024 1.0606 0.76172-1.5918 2.2871-2.7969 4.0098-3.1719 0.55274-0.12109 1.1465-0.15625 1.6699 0.056641 0.26172 0.10547 0.5 0.27539 0.67188 0.5 0.17188 0.22461 0.27148 0.50586 0.26172 0.78711-0.0059 0.19727-0.06445 0.38867-0.1582 0.5625-0.09375 0.17188-0.2207 0.32617-0.36524 0.45899-0.28906 0.26563-0.64063 0.45313-0.98438 0.64258z" fill="url(#a)" stroke-width=".5"/>
    <path d="m43.34 3.4025c-0.04297 0-0.08789 0.00781-0.13281 0.00781 0.25195 0.011719 0.50196 0.050782 0.73633 0.14648 0.26172 0.10547 0.5 0.27539 0.67188 0.49805 0.17188 0.22461 0.27148 0.50586 0.26172 0.78906-0.0059 0.19531-0.06445 0.39063-0.1582 0.5625-0.09375 0.17188-0.2207 0.32617-0.36524 0.45899-0.28906 0.26758-0.64063 0.45313-0.98438 0.64258-1.832 1.0039-3.6113 2.1524-5.0528 3.6641-2.3906 2.5098-3.7246 5.9922-3.625 9.4571-0.02735-1.8672 0.41211-3.7324 1.2324-5.4102 0.61719-1.4922 1.4981-2.877 2.6133-4.0469 1.4414-1.5117 3.2207-2.6602 5.0528-3.6641 0.3457-0.18945 0.69531-0.375 0.98438-0.64258 0.14453-0.13281 0.27148-0.28711 0.36524-0.45899 0.09375-0.17188 0.1543-0.36719 0.16016-0.5625 0.0098-0.2832-0.0918-0.56445-0.26367-0.78906-0.17188-0.22266-0.41016-0.39258-0.67188-0.49805-0.26172-0.10547-0.54102-0.15039-0.82422-0.1543zm-7.6856 2.1816c-0.05273-0.00195-0.10352 0.00195-0.15625 0.0039 0.12109 0.0039 0.24219 0.00976 0.36328 0.023435 0.88282 0.10156 1.7324 0.47656 2.4024 1.0606 0.02148-0.04297 0.04883-0.082031 0.06836-0.12305-0.64453-0.51172-1.4316-0.84375-2.25-0.9375-0.14258-0.015625-0.28516-0.02539-0.42774-0.027345zm5.7988 3.2617c-0.04297 0.021485-0.08398 0.046875-0.12891 0.070313 0.85352 0.61328 1.4668 1.5508 1.6758 2.5801 0.17969 0.87891 0.07422 1.8027-0.22656 2.6484-0.30078 0.84571-0.78906 1.6152-1.3633 2.3027-0.62891 0.75196-1.3633 1.4121-2.0117 2.1504-0.64844 0.73633-1.2188 1.5762-1.4356 2.5332-0.2207 0.98242-0.04492 2.0391 0.44141 2.918 0.49805 0.89844 1.3184 1.6094 2.2734 1.9863 0.11133 0.01367 0.22266 0.03321 0.33398 0.04492-1.0039-0.36133-1.8691-1.0977-2.3867-2.0313-0.48633-0.87891-0.66211-1.9356-0.44141-2.918 0.2168-0.95704 0.78711-1.7969 1.4356-2.5352 0.64844-0.73633 1.3828-1.3965 2.0117-2.1484 0.57422-0.6875 1.0625-1.457 1.3633-2.3027 0.30078-0.8457 0.40625-1.7695 0.22656-2.6484-0.2168-1.0664-0.86524-2.0391-1.7676-2.6504z" fill="#57e389" stroke-width=".5"/>
    <g fill="none" stroke="#c8def7" stroke-linecap="round">
        <path d="m3.535 36h46.274"/>
        <path d="m42.238 54.276c3.4277 3.4277 8.7266 4.125 12.924 1.7012 4.1973-2.4219 6.2422-7.3614 4.9883-12.041-1.2539-4.6817-5.4961-7.9356-10.342-7.9356"/>
        <path d="m3.535 30h43.211"/>
        <path d="m46.746 14.444c2.7793 0 5.3477 1.4824 6.7363 3.8887 1.3906 2.4082 1.3906 5.3731 0 7.7793-1.3887 2.4063-3.957 3.8887-6.7363 3.8887"/>
        <path d="m3.535 42h26.455"/>
        <path d="m25.383 47.842c0.6211 2.3242 2.918 3.7871 5.2871 3.3692 2.3691-0.41797 4.0274-2.5781 3.8164-4.9746-0.20898-2.3965-2.2168-4.2363-4.6211-4.2363"/>
    </g>
</svg>
